packages/katcn/src/icons/svg/unsecure.svg

<svg width="24" height="25" viewBox="0 0 24 25" fill="none" xmlns="http://www.w3.org/2000/svg">
<path d="M14.7 9.27601C14.3 8.87601 13.7 8.87601 13.3 9.27601L12 10.576L10.7 9.27601C10.3 8.87601 9.7 8.87601 9.3 9.27601C8.9 9.67601 8.9 10.276 9.3 10.676L10.6 11.976L9.3 13.276C8.9 13.676 8.9 14.276 9.3 14.676C9.5 14.876 9.7 14.976 10 14.976C10.3 14.976 10.5 14.876 10.7 14.676L12 13.376L13.3 14.676C13.5 14.876 13.8 14.976 14 14.976C14.2 14.976 14.5 14.876 14.7 14.676C15.1 14.276 15.1 13.676 14.7 13.276L13.4 11.976L14.7 10.676C15.1 10.276 15.1 9.67601 14.7 9.27601Z" fill="black"/>
<path d="M20.0366 5.25474L13.8345 2.35144C12.7341 1.85087 11.3336 1.85087 10.2332 2.35144L4.03111 5.25474C2.63063 5.95553 1.83035 7.55735 2.03042 9.15918C2.5306 12.4629 4.13115 18.67 9.83311 23.2752C10.5334 23.7758 11.3336 23.976 12.0339 23.976C12.7341 23.976 13.5344 23.6757 14.1346 23.1751C19.8366 18.5699 21.5371 12.3628 21.9373 9.05906C22.2374 7.55736 21.4371 5.95553 20.0366 5.25474ZM12.9342 21.6734C12.434 22.0739 11.7338 22.0739 11.2336 21.6734C6.0318 17.4686 4.53128 11.8622 4.03111 8.85883C3.93108 8.05792 4.33122 7.35713 4.93142 7.05679L11.1336 4.15349C11.4337 4.05337 11.7338 3.95326 12.0339 3.95326C12.334 3.95326 12.6341 4.05337 12.9342 4.15349L19.1363 7.05679C19.7365 7.35713 20.1367 8.05792 20.0366 8.75872C19.5365 11.8622 18.0359 17.4686 12.9342 21.6734Z" fill="black"/>
</svg>

<svg xmlns="http://www.w3.org/2000/svg" fill="none" viewBox="0 0 24 25"><path fill="#000" d="M14.7 9.276c-.4-.4-1-.4-1.4 0l-1.3 1.3-1.3-1.3c-.4-.4-1-.4-1.4 0s-.4 1 0 1.4l1.3 1.3-1.3 1.3c-.4.4-.4 1 0 1.4.2.2.4.3.7.3s.5-.1.7-.3l1.3-1.3 1.3 1.3c.2.2.5.3.7.3s.5-.1.7-.3c.4-.4.4-1 0-1.4l-1.3-1.3 1.3-1.3c.4-.4.4-1 0-1.4"/><path fill="#000" d="M20.037 5.255 13.835 2.35c-1.1-.5-2.501-.5-3.602 0L4.031 5.255c-1.4.7-2.2 2.302-2 3.904.5 3.304 2.1 9.511 7.802 14.116.7.5 1.5.701 2.2.701s1.501-.3 2.102-.8c5.702-4.606 7.402-10.813 7.802-14.117.3-1.502-.5-3.103-1.9-3.804m-7.103 16.418c-.5.4-1.2.4-1.7 0C6.032 17.47 4.53 11.863 4.03 8.86c-.1-.801.3-1.502.9-1.802l6.203-2.904c.3-.1.6-.2.9-.2s.6.1.9.2l6.202 2.904c.6.3 1 1 .9 1.702-.5 3.103-2 8.71-7.102 12.914"/></svg>
